X: 39824
T: Thief Of Lochaber, The
R: jig
M: 6/8
K: Dmajor
e|:(d2A) AAA|fag (f2e)|dBB (B2e)|dBB (B2G)|(d2A) AAA|fag (f2e)|fdd (d2e)|1 fdd d2 e:|2 fdd d2 f||
|:ABd fdd|add fdd|Ace ecc|gcc ecc|ABd fdd|add fdd|Bcd afe|fdd d2 f:|
|:Bdd AAA|(fa)A f2 e|Bdd AAA|dBB (B2G)|Bdd AAA|(fa)A f2 e|fag (f2e)|1 fdd d2 f:|2 fdd d2 g||
|:faa AAA|aff (f2e)|faa AAA|dBB (B2G)|1 faa AAA|aff (f2e)|fag (f2e)|fdd d2 g:|2 Bdd AAA|(fa)A f2 e|aAA (f2e)|fdd d3||

